UI/Data/SVG/marketplace_outline_24px.svg

<svg xmlns="http://www.w3.org/2000/svg" width="24" height="24" viewBox="0 0 24 24"><rect width="24" height="24" style="fill:none"/><path d="M22,10,19,9,18,2H6L5,9,2,10v2H5V22h6V18h2v4h6V12h3ZM6.89,9.94,7.73,4h8.54l.84,5.94.06.06H6.83ZM17,20H15V16H9v4H7V12H17Z"/></svg>

<svg width="24" height="24" viewBox="0 0 24 24" fill="none" xmlns="http://www.w3.org/2000/svg">
<path d="M22 10L19 9L18 2H6L5 9L2 10V12H5V22H11V18H13V22H19V12H22V10ZM6.89 9.94L7.73 4H16.27L17.11 9.94L17.17 10H6.83L6.89 9.94ZM17 20H15V16H9V20H7V12H17V20Z" fill="#0F1621"/>
</svg>
